imagenes/background .svg

<svg xmlns="http://www.w3.org/2000/svg" width="1440" height="560" preserveAspectRatio="none"><g mask="url(&quot;#a&quot;)" fill="none"><path d="M225 210.45a5.2 5.2 0 1 0 10.4 0 5.2 5.2 0 1 0-10.4 0zM128.27 385.46h17.1v41.41h-17.1zM1131.56 44.38a49.69 49.69 0 1 0 99.38 0 49.69 49.69 0 1 0-99.38 0z" fill="rgba(50, 255, 117, 1)"/><path d="M210.17 503.12h41.5v41.5h-41.5zM1219.93 549.7h49.83v49.83h-49.83z" fill="rgba(53, 231, 149, 1)"/><path d="M51.09 140.07a48.59 48.59 0 1 0 97.18 0 48.59 48.59 0 1 0-97.18 0z" stroke="rgba(53, 231, 149, 1)"/><path d="M154.35 310.07a39.34 39.34 0 1 0 78.68 0 39.34 39.34 0 1 0-78.68 0z" stroke="rgba(20, 211, 198, 1)"/><path d="M964.87 135.71a55.01 55.01 0 1 0-22.86 107.62z" stroke="rgba(50, 255, 117, 1)"/><path d="M506.58 403.93h37.7v44.53h-37.7z" stroke="rgba(53, 231, 149, 1)"/><path d="M909.51 403.72a9.59 9.59 0 1 0-18.59-4.72z" fill="rgba(53, 231, 149, 1)"/><path d="M1301.24 166.56a34.56 34.56 0 1 0 69.12 0 34.56 34.56 0 1 0-69.12 0z" stroke="rgba(20, 211, 198, 1)"/><path d="M944.12 279.5a33.07 33.07 0 1 0 40.47-52.31z" fill="rgba(20, 211, 198, 1)"/><path d="M289.15 48.16a53.51 53.51 0 1 0 107.02 0 53.51 53.51 0 1 0-107.02 0z" stroke="rgba(50, 255, 117, 1)"/><path d="M1336.41 99.5h23.44v23.44h-23.44z" fill="rgba(20, 211, 198, 1)"/><path d="M236.93 148.15h30.06v9.34h-30.06z" stroke="rgba(20, 211, 198, 1)"/><path d="M1337.77 136.09h49.02v43.69h-49.02z" stroke="rgba(50, 255, 117, 1)"/><path d="M22.95 567.31a30.26 30.26 0 1 0 3.01-60.44z" fill="rgba(50, 255, 117, 1)"/><path d="M837.15 39.74h7.95v7.95h-7.95z" stroke="rgba(50, 255, 117, 1)"/><path d="M1423.59 303.37h18.28v18.28h-18.28z" stroke="rgba(20, 211, 198, 1)"/><path d="M1384.38.24h52.36V52.6h-52.36zM462.53 211.65h7.55v36.62h-7.55z" fill="rgba(20, 211, 198, 1)"/><path d="M1352.61 217.03a27.37 27.37 0 1 0 54.74 0 27.37 27.37 0 1 0-54.74 0z" fill="rgba(53, 231, 149, 1)"/><path d="M32.24 134.73h.41v.41h-.41z" stroke="rgba(20, 211, 198, 1)"/><path d="M1153.19 230.79h33.63v33.63h-33.63zM1372.38 157.95h54.53v54.53h-54.53z" stroke="rgba(53, 231, 149, 1)"/><path d="M257.03 414.34a43.13 43.13 0 1 0 86.26 0 43.13 43.13 0 1 0-86.26 0z" stroke="rgba(50, 255, 117, 1)"/><path d="M1170.57 279.09h.83v.83h-.83z" fill="rgba(50, 255, 117, 1)"/><path d="M1039.36 242.07a29.61 29.61 0 1 0-46.09-37.18z" fill="rgba(53, 231, 149, 1)"/><path d="M1124.99 83.98a.59.59 0 1 0 1.18 0 .59.59 0 1 0-1.18 0z" fill="rgba(50, 255, 117, 1)"/><path d="M1240.92 324.74a17.07 17.07 0 1 0 34.14 0 17.07 17.07 0 1 0-34.14 0z" stroke="rgba(20, 211, 198, 1)"/><path d="M1165.98.84h16.43v16.43h-16.43z" fill="rgba(50, 255, 117, 1)"/><path d="M485.16 506.93a27.33 27.33 0 1 0 54.66 0 27.33 27.33 0 1 0-54.66 0z" stroke="rgba(53, 231, 149, 1)"/><path d="M735.27 381.81a23.43 23.43 0 1 0 9.16-45.95z" fill="rgba(20, 211, 198, 1)"/></g><defs><mask id="a"><path fill="#fff" d="M0 0h1440v560H0z"/></mask></defs></svg>

<svg xmlns="http://www.w3.org/2000/svg" version="1.1" xmlns:xlink="http://www.w3.org/1999/xlink" xmlns:svgjs="http://svgjs.dev/svgjs" width="1440" height="560" preserveAspectRatio="none" viewBox="0 0 1440 560"><g mask="url(&quot;#SvgjsMask1041&quot;)" fill="none"><path d="M225 210.45 a5.2 5.2 0 1 0 10.4 0 a5.2 5.2 0 1 0 -10.4 0z" fill="rgba(50, 255, 117, 1)"></path><path d="M128.27 385.46L145.37 385.46L145.37 426.87L128.27 426.87z" fill="rgba(50, 255, 117, 1)"></path><path d="M1131.56 44.38 a49.69 49.69 0 1 0 99.38 0 a49.69 49.69 0 1 0 -99.38 0z" fill="rgba(50, 255, 117, 1)"></path><path d="M210.17 503.12L251.67 503.12L251.67 544.62L210.17 544.62z" fill="rgba(53, 231, 149, 1)"></path><path d="M1219.93 549.7L1269.76 549.7L1269.76 599.53L1219.93 599.53z" fill="rgba(53, 231, 149, 1)"></path><path d="M51.09 140.07 a48.59 48.59 0 1 0 97.18 0 a48.59 48.59 0 1 0 -97.18 0z" stroke="rgba(53, 231, 149, 1)"></path><path d="M154.35 310.07 a39.34 39.34 0 1 0 78.68 0 a39.34 39.34 0 1 0 -78.68 0z" stroke="rgba(20, 211, 198, 1)"></path><path d="M964.87 135.71a55.01 55.01 0 1 0-22.86 107.62z" stroke="rgba(50, 255, 117, 1)"></path><path d="M506.58 403.93L544.28 403.93L544.28 448.46L506.58 448.46z" stroke="rgba(53, 231, 149, 1)"></path><path d="M909.51 403.72a9.59 9.59 0 1 0-18.59-4.72z" fill="rgba(53, 231, 149, 1)"></path><path d="M1301.24 166.56 a34.56 34.56 0 1 0 69.12 0 a34.56 34.56 0 1 0 -69.12 0z" stroke="rgba(20, 211, 198, 1)"></path><path d="M944.12 279.5a33.07 33.07 0 1 0 40.47-52.31z" fill="rgba(20, 211, 198, 1)"></path><path d="M289.15 48.16 a53.51 53.51 0 1 0 107.02 0 a53.51 53.51 0 1 0 -107.02 0z" stroke="rgba(50, 255, 117, 1)"></path><path d="M1336.41 99.5L1359.85 99.5L1359.85 122.94L1336.41 122.94z" fill="rgba(20, 211, 198, 1)"></path><path d="M236.93 148.15L266.99 148.15L266.99 157.49L236.93 157.49z" stroke="rgba(20, 211, 198, 1)"></path><path d="M1337.77 136.09L1386.79 136.09L1386.79 179.78L1337.77 179.78z" stroke="rgba(50, 255, 117, 1)"></path><path d="M22.95 567.31a30.26 30.26 0 1 0 3.01-60.44z" fill="rgba(50, 255, 117, 1)"></path><path d="M837.15 39.74L845.1 39.74L845.1 47.69L837.15 47.69z" stroke="rgba(50, 255, 117, 1)"></path><path d="M1423.59 303.37L1441.87 303.37L1441.87 321.65L1423.59 321.65z" stroke="rgba(20, 211, 198, 1)"></path><path d="M1384.38 0.24L1436.74 0.24L1436.74 52.6L1384.38 52.6z" fill="rgba(20, 211, 198, 1)"></path><path d="M462.53 211.65L470.08 211.65L470.08 248.27L462.53 248.27z" fill="rgba(20, 211, 198, 1)"></path><path d="M1352.61 217.03 a27.37 27.37 0 1 0 54.74 0 a27.37 27.37 0 1 0 -54.74 0z" fill="rgba(53, 231, 149, 1)"></path><path d="M32.24 134.73L32.65 134.73L32.65 135.14L32.24 135.14z" stroke="rgba(20, 211, 198, 1)"></path><path d="M1153.19 230.79L1186.82 230.79L1186.82 264.42L1153.19 264.42z" stroke="rgba(53, 231, 149, 1)"></path><path d="M1372.38 157.95L1426.91 157.95L1426.91 212.48L1372.38 212.48z" stroke="rgba(53, 231, 149, 1)"></path><path d="M257.03 414.34 a43.13 43.13 0 1 0 86.26 0 a43.13 43.13 0 1 0 -86.26 0z" stroke="rgba(50, 255, 117, 1)"></path><path d="M1170.57 279.09L1171.4 279.09L1171.4 279.92L1170.57 279.92z" fill="rgba(50, 255, 117, 1)"></path><path d="M1039.36 242.07a29.61 29.61 0 1 0-46.09-37.18z" fill="rgba(53, 231, 149, 1)"></path><path d="M1124.99 83.98 a0.59 0.59 0 1 0 1.18 0 a0.59 0.59 0 1 0 -1.18 0z" fill="rgba(50, 255, 117, 1)"></path><path d="M1240.92 324.74 a17.07 17.07 0 1 0 34.14 0 a17.07 17.07 0 1 0 -34.14 0z" stroke="rgba(20, 211, 198, 1)"></path><path d="M1165.98 0.84L1182.41 0.84L1182.41 17.27L1165.98 17.27z" fill="rgba(50, 255, 117, 1)"></path><path d="M485.16 506.93 a27.33 27.33 0 1 0 54.66 0 a27.33 27.33 0 1 0 -54.66 0z" stroke="rgba(53, 231, 149, 1)"></path><path d="M735.27 381.81a23.43 23.43 0 1 0 9.16-45.95z" fill="rgba(20, 211, 198, 1)"></path></g><defs><mask id="SvgjsMask1041"><rect width="1440" height="560" fill="#ffffff"></rect></mask></defs></svg>
